src/assets/img/providers/kajotgames.svg

<svg width="142" height="16" viewBox="0 0 142 16" fill="none" xmlns="http://www.w3.org/2000/svg">
<g clip-path="url(#clip0_4540_7988)">
<path fill-rule="evenodd" clip-rule="evenodd" d="M72.5317 0.0196308C74.273 -0.131033 76.0991 0.51361 77.4221 1.74856C78.6892 2.93082 79.3635 4.4992 79.3272 6.16227C79.3421 7.48768 78.8904 8.77611 78.0511 9.80207C77.2353 10.8032 76.1412 11.5404 74.907 11.9204C74.5268 12.0375 74.1365 12.1188 73.7412 12.1633L73.7313 12.1814L73.7058 12.1699H73.7016C73.4911 12.1922 73.2795 12.2035 73.0677 12.2036C72.2367 12.2054 71.4149 12.03 70.6571 11.6891C69.4303 11.1788 68.414 10.2659 67.7755 9.10062C67.1828 7.99817 66.9306 6.74458 67.051 5.49869H67.0724V5.48387H67.0502C67.2684 3.26343 68.5997 1.41348 70.6134 0.535016C71.2087 0.2596 71.8466 0.0875419 72.4996 0.0262172V0.0369201H72.5054V0.0196308H72.5268H72.5317ZM75.2758 5.21383C75.2972 5.3118 75.3153 5.40319 75.3309 5.49046C75.5257 6.33741 75.6076 7.20637 75.5746 8.07479C76.5741 7.64832 77.4057 7.13211 78.0585 6.54099C78.0635 6.4109 78.0635 6.28576 78.0635 6.16391C78.0703 5.40729 77.9112 4.65837 77.5975 3.96982C76.8726 4.47012 76.0938 4.88741 75.2758 5.21383ZM75.1984 10.8682C76.3818 10.2887 77.298 9.27745 77.758 8.04268V8.04186C77.0573 8.52049 76.2952 8.90238 75.4923 9.17719C75.4244 9.74569 75.3263 10.3102 75.1984 10.8682ZM74.9959 4.25139C75.8332 3.87514 76.5741 3.43468 77.05 3.03455V3.03373C76.5923 2.40587 76.0049 1.88371 75.3278 1.50261C74.6507 1.1215 73.8996 0.890357 73.1253 0.824818C73.9914 2.04742 74.6204 3.19921 74.9959 4.25139ZM71.6744 9.89838C72.7533 9.85733 73.8232 9.68425 74.86 9.38301C74.893 9.96509 74.902 10.5118 74.8872 11.0107C74.2712 11.2674 73.6115 11.4032 72.9442 11.4108C72.4688 10.9529 72.0431 10.4459 71.6744 9.89838ZM67.6284 5.28632C67.903 3.57621 68.9335 2.12951 70.4076 1.37725C69.708 2.62772 69.3105 4.02444 69.2468 5.45588C68.7037 5.44182 68.1626 5.38513 67.6284 5.28632ZM70.7863 1.20354C70.3393 2.34051 70.1013 3.92125 70.1475 5.44682V5.44517C71.5159 5.36632 72.8646 5.08127 74.1479 4.59965C73.7958 3.30527 73.3467 2.03929 72.8042 0.812468C72.1432 0.804986 71.487 0.925771 70.872 1.16813L70.7962 1.19942L70.7863 1.20354ZM70.2808 6.82667C70.4784 7.63717 70.7894 8.41573 71.2046 9.13932C72.4262 9.03818 73.6301 8.78285 74.7876 8.37941C74.7176 7.60386 74.6114 6.77727 74.4583 5.78355C74.4542 5.76667 74.4502 5.74958 74.4461 5.73238C74.4301 5.66487 74.4137 5.59559 74.3973 5.52997C73.0398 5.9644 71.6238 6.18819 70.1985 6.19355C70.2174 6.41502 70.2463 6.63073 70.2808 6.82667ZM70.2411 9.1805C69.8145 8.51921 69.5215 7.78082 69.3785 7.00697C69.3177 6.72906 69.2778 6.44697 69.2591 6.16309C68.6873 6.12308 68.1199 6.03439 67.5631 5.89799C67.5039 6.98033 67.7752 8.05509 68.3411 8.9796C68.9639 9.12395 69.6019 9.19143 70.2411 9.1805ZM68.554 9.23152C68.5443 9.22471 68.5318 9.21882 68.5156 9.21122C68.5073 9.20731 68.498 9.20295 68.4877 9.19777L68.5256 9.25129L68.554 9.23152ZM68.5782 9.24552H68.5824V9.24717C68.5833 9.25411 68.5862 9.26066 68.5906 9.26611L68.6013 9.25705L68.6062 9.20601L68.5733 9.18707C68.5706 9.19062 68.5684 9.19449 68.5667 9.1986C68.5651 9.20592 68.5651 9.2135 68.5667 9.22082C68.571 9.21743 68.5749 9.21356 68.5782 9.2093C68.5755 9.21495 68.5741 9.22114 68.5741 9.22741C68.5741 9.23368 68.5755 9.23987 68.5782 9.24552ZM72.3498 11.382C71.7552 10.9588 71.2195 10.4586 70.7567 9.89428V9.89593C70.1054 9.87248 69.4584 9.78115 68.8261 9.62342C69.3745 10.2359 70.062 10.7077 70.8308 10.9992C71.3161 11.1992 71.8277 11.3281 72.3498 11.382ZM112.583 11.7072C112.387 11.7079 112.194 11.6592 112.021 11.5656C111.842 11.4677 111.695 11.3195 111.598 11.1391L108.755 6.15983V11.5656H106.444V1.95359C106.442 1.69809 106.524 1.44903 106.679 1.24555C106.832 1.04114 107.049 0.894113 107.296 0.828139C107.391 0.804514 107.489 0.792353 107.587 0.791913H107.669C107.791 0.800184 107.91 0.826547 108.023 0.870127C108.139 0.915236 108.247 0.978917 108.342 1.05866C108.439 1.14149 108.521 1.24035 108.585 1.35093L112.579 8.29299L116.572 1.35176C116.702 1.13143 116.901 0.96093 117.139 0.867657C117.278 0.813173 117.425 0.785245 117.574 0.785327C117.678 0.785719 117.781 0.798713 117.881 0.824022C118.127 0.891458 118.344 1.03783 118.498 1.24061C118.656 1.44347 118.741 1.69392 118.739 1.95112V11.5656H116.422V6.16312L113.591 11.1424C113.493 11.3238 113.343 11.4717 113.16 11.5673C112.982 11.6606 112.784 11.7087 112.583 11.7072ZM4.77336 0.865164L5.5415 2.2409V2.24254H6.39856C6.21992 2.96369 6.0787 3.6799 5.93894 4.38868L5.93894 4.3887C5.29416 7.65868 4.68053 10.7707 0.56795 13.4806C0.227104 13.7004 0.524315 14.1639 0.921969 13.9836C6.63978 12.0909 8.37777 9.15826 9.44806 6.64143H11.2231V10.1816H9.36655L10.208 11.6249H15.8294L16.6873 10.1816H15.3001L14.965 4.70668H12.5387L20.1435 0.865164H14.8135L10.8847 4.70668H10.0878L10.8962 2.2409H11.545L12.1831 0.865164H4.77336ZM23.9011 4.70668L25.0101 2.2409L26.0137 4.70668H23.9011ZM31.5866 10.1816L30.3944 6.73447V4.70668H29.6461L28.8598 2.2409H30.1211L29.0376 0.865164H20.9191L19.8727 2.2409H20.7256L17.798 10.1816H17.1887L17.2554 11.6249H22.3269L23.0679 10.1816H21.7836L23.2655 6.72376H26.4945L27.8225 10.1816H25.8786L26.7061 11.6249H32.2222L32.8693 10.1816H31.5866ZM51.382 0.865164H65.4291L63.9612 3.15641H62.4578V2.2409H60.6515V10.1824H62.4578L61.8494 11.6249H55.0424L54.406 10.1824H56.6733V2.2409H54.7057V3.15641H52.8993L51.382 0.865164ZM44.1304 5.92022C44.1304 7.43262 45.6757 8.66757 47.5602 8.66757C49.4448 8.66757 50.9893 7.43098 50.9893 5.92022C50.9893 4.39136 49.4448 3.15641 47.5602 3.15641C45.6757 3.15641 44.1304 4.39136 44.1304 5.92022ZM40.0056 6.2446C40.0056 3.27661 43.0411 0.865164 46.7707 0.865164C50.4986 0.865164 53.5366 3.27661 53.5366 6.2446C53.5366 9.19942 50.5002 11.6249 46.7707 11.6249C43.0411 11.6249 40.0056 9.19942 40.0056 6.2446ZM29.9342 0.865164H40.9533C40.4348 2.20885 40.0607 3.57115 39.6945 4.90456L39.6945 4.90461C38.3686 9.73301 37.1468 14.1825 29.5522 15.9966C29.2813 16.0353 29.1183 15.7603 29.3365 15.5026C33.7927 12.9219 34.7602 7.87499 35.7994 2.45406L35.8406 2.23925H32.8717V3.15641H31.4721L29.9342 0.865164ZM85.0665 11.5656C84.8658 11.5639 84.6659 11.5421 84.4696 11.5006C84.2533 11.4552 84.0425 11.387 83.8406 11.2972C83.628 11.2021 83.4276 11.0819 83.2437 10.9391C83.0463 10.7859 82.8731 10.6038 82.7299 10.399C82.5756 10.1749 82.4563 9.92868 82.3759 9.66874C82.2854 9.36901 82.2413 9.05723 82.245 8.74417V3.75415C82.2464 3.5535 82.2682 3.35351 82.3101 3.15726C82.3546 2.94089 82.4225 2.72999 82.5126 2.52826C82.6088 2.31471 82.7307 2.11371 82.8757 1.92972C83.0303 1.73343 83.2131 1.56114 83.4182 1.41845C83.6409 1.26433 83.8858 1.14496 84.1444 1.06443C84.4431 0.973153 84.7541 0.928717 85.0665 0.932706H92.7931V3.24371H85.0673C84.8886 3.24371 84.7618 3.28405 84.6795 3.36638C84.5972 3.44871 84.5568 3.58291 84.5568 3.76815V8.74417C84.5464 8.81361 84.5524 8.88453 84.5743 8.95123C84.5963 9.01792 84.6336 9.07853 84.6833 9.12819C84.7329 9.17784 84.7935 9.21515 84.8602 9.2371C84.9269 9.25906 84.9978 9.26506 85.0673 9.25462H90.5702V7.41043H85.6658V5.08625H91.7187C91.8729 5.086 92.0256 5.1167 92.1677 5.17651C92.3098 5.23633 92.4385 5.32406 92.5461 5.43451C92.6503 5.54006 92.7341 5.664 92.7931 5.80005C92.853 5.94233 92.8835 6.09522 92.8829 6.24957V10.4039C92.8837 10.5612 92.8532 10.7171 92.7931 10.8625C92.7359 11.0006 92.652 11.1259 92.5461 11.2314C92.4399 11.3371 92.3141 11.421 92.1757 11.4783C92.0301 11.5379 91.8743 11.5681 91.7171 11.5673L85.0665 11.5656ZM102.46 9.0702V11.5656L104.772 11.5599V2.09191C104.773 1.93918 104.743 1.78784 104.685 1.64657C104.627 1.5053 104.542 1.37686 104.434 1.26861C104.327 1.16262 104.2 1.07869 104.061 1.02162C103.918 0.962259 103.764 0.932032 103.609 0.932707H99.4553C98.7315 0.925905 98.0133 1.05926 97.3402 1.32542C96.7107 1.5765 96.1375 1.95041 95.6541 2.42535C95.1722 2.90643 94.7929 3.48033 94.5393 4.11229C94.2678 4.79151 94.1319 5.51731 94.1392 6.24875V11.5656H96.4502V9.0702H102.46ZM102.46 3.24371V6.7592H96.4502V6.24875C96.4392 5.83044 96.5068 5.41377 96.6495 5.02039C96.7654 4.71487 96.9362 4.43308 97.1533 4.18886C97.3435 3.97879 97.5689 3.80354 97.8194 3.671C98.0456 3.55156 98.2834 3.4553 98.5291 3.38367C98.7217 3.32758 98.919 3.28874 99.1185 3.26758C99.2906 3.25194 99.4017 3.24371 99.4553 3.24371H102.46ZM130.07 0.932652V3.24365H122.682V5.0862H129.239V7.41037H122.682V8.74412C122.682 8.92195 122.723 9.05038 122.805 9.13189C122.886 9.2134 123.019 9.25456 123.199 9.25456H130.068V11.5656H123.185C122.878 11.5612 122.573 11.5124 122.28 11.4207C121.945 11.3207 121.633 11.1562 121.361 10.9366C121.067 10.6973 120.826 10.3992 120.654 10.0614C120.454 9.65195 120.356 9.19987 120.369 8.74412V2.09103C120.368 1.93621 120.398 1.7828 120.458 1.63987C120.516 1.50152 120.599 1.3755 120.705 1.26856C120.811 1.16202 120.937 1.07801 121.077 1.02157C121.222 0.961726 121.378 0.931498 121.535 0.932652H130.07ZM131.04 11.5656V9.25455H138.384C138.674 9.25455 138.888 9.17222 139.043 9.0158C139.198 8.85937 139.273 8.63049 139.273 8.33987C139.275 8.20817 139.253 8.07721 139.21 7.95292C139.172 7.84546 139.112 7.74687 139.035 7.66312C138.959 7.5825 138.867 7.51977 138.764 7.47952C138.644 7.43246 138.516 7.40924 138.387 7.41119H134.148C133.797 7.40809 133.448 7.35231 133.113 7.2457C132.735 7.12798 132.382 6.93969 132.074 6.6908C131.74 6.41658 131.467 6.07417 131.275 5.68637C131.063 5.27472 130.956 4.76346 130.956 4.17644C130.956 3.58943 131.063 3.08145 131.276 2.66898C131.46 2.29724 131.717 1.96685 132.033 1.69792C132.349 1.42899 132.716 1.22716 133.113 1.10471C133.446 0.997035 133.794 0.93987 134.145 0.935113H140.649V3.24364H134.145C133.861 3.24364 133.651 3.32597 133.499 3.49063C133.346 3.65529 133.267 3.88417 133.267 4.17562C133.267 4.46707 133.341 4.69183 133.495 4.85402C133.649 5.01621 133.859 5.08948 134.145 5.08948H138.384C138.618 5.09524 138.851 5.12448 139.08 5.17675C139.585 5.29248 140.058 5.52133 140.462 5.84609C140.683 6.02357 140.878 6.23242 141.038 6.46604C141.212 6.72089 141.345 7.00039 141.435 7.2951C141.536 7.63522 141.585 7.98852 141.58 8.34316C141.584 8.6997 141.534 9.05479 141.431 9.39616C141.34 9.69044 141.207 9.96998 141.036 10.226C140.876 10.463 140.68 10.6726 140.453 10.8468C140.045 11.1642 139.571 11.3851 139.066 11.4931C138.842 11.5417 138.613 11.5671 138.383 11.5688L131.04 11.5656Z" fill="#919EAB"/>
</g>
<defs>
<clipPath id="clip0_4540_7988">
<rect width="141.162" height="16" fill="white" transform="translate(0.418945 0.000976562)"/>
</clipPath>
</defs>
</svg>

<svg xmlns="http://www.w3.org/2000/svg" width="142" height="16" fill="none"><g clip-path="url(#a)"><path fill="#919EAB" fill-rule="evenodd" d="M72.532.02c1.741-.151 3.567.494 4.89 1.729 1.267 1.182 1.942 2.75 1.905 4.413a5.648 5.648 0 0 1-1.276 3.64 6.538 6.538 0 0 1-4.31 2.361l-.01.018-.025-.011h-.004a5.845 5.845 0 0 1-3.044-.48 5.846 5.846 0 0 1-2.883-2.59 6.322 6.322 0 0 1-.724-3.601h.021v-.015h-.022c.218-2.22 1.55-4.07 3.563-4.949A5.78 5.78 0 0 1 72.5.026v.01h.005V.02h.027Zm2.744 5.194c.021.098.04.19.055.276a9.86 9.86 0 0 1 .244 2.585c1-.427 1.83-.943 2.483-1.534.005-.13.005-.255.005-.377a5.18 5.18 0 0 0-.466-2.194c-.724.5-1.503.917-2.321 1.244Zm-.078 5.654a5.147 5.147 0 0 0 2.56-2.825v-.001c-.7.478-1.463.86-2.266 1.135a16.133 16.133 0 0 1-.294 1.691Zm-.202-6.617c.837-.376 1.578-.816 2.054-1.216v-.001a5.423 5.423 0 0 0-3.925-2.21c.866 1.223 1.495 2.375 1.87 3.427Zm-3.322 5.647a13.22 13.22 0 0 0 3.186-.515c.033.582.042 1.129.027 1.628a5.206 5.206 0 0 1-1.943.4 9.355 9.355 0 0 1-1.27-1.513Zm-4.046-4.612c.275-1.71 1.305-3.156 2.78-3.909a9.19 9.19 0 0 0-1.161 4.079 10.374 10.374 0 0 1-1.619-.17Zm3.158-4.082c-.447 1.137-.685 2.717-.639 4.243v-.002a13.614 13.614 0 0 0 4-.845A26.681 26.681 0 0 0 72.805.812a5.112 5.112 0 0 0-1.932.356l-.076.031-.01.005Zm-.505 5.623c.197.81.508 1.589.924 2.312a14.529 14.529 0 0 0 3.583-.76 41.344 41.344 0 0 0-.33-2.595l-.012-.052-.049-.202a13.948 13.948 0 0 1-4.199.664c.02.221.048.437.083.633Zm-.04 2.354a6.031 6.031 0 0 1-.862-2.174c-.061-.278-.101-.56-.12-.844-.572-.04-1.14-.129-1.696-.265a5.344 5.344 0 0 0 .778 3.082c.623.144 1.26.211 1.9.2Zm-1.687.05a.266.266 0 0 0-.038-.02l-.028-.013.038.053.028-.02Zm.024.015h.004v.001c.001.007.004.014.009.02l.01-.01.005-.051-.033-.019a.052.052 0 0 0-.006.012.052.052 0 0 0 0 .022.067.067 0 0 0 .011-.012.042.042 0 0 0 0 .037Zm3.772 2.136a8.238 8.238 0 0 1-1.593-1.488v.002a9.37 9.37 0 0 1-1.93-.273A5.134 5.134 0 0 0 70.83 11c.485.2.997.33 1.519.383Zm40.233.325c-.196 0-.389-.048-.562-.141a1.056 1.056 0 0 1-.423-.427l-2.843-4.98v5.407h-2.311V1.954a1.153 1.153 0 0 1 1.143-1.162h.082a1.138 1.138 0 0 1 .673.267c.097.082.179.181.243.292l3.994 6.942 3.993-6.941c.13-.22.329-.391.567-.484a1.188 1.188 0 0 1 .742-.044c.246.067.463.214.617.417.158.202.243.453.241.71v9.615h-2.317V6.163l-2.831 4.98c-.098.18-.248.329-.431.424a1.223 1.223 0 0 1-.577.14ZM4.773.865l.769 1.376v.002h.857c-.18.72-.32 1.437-.46 2.146C5.294 7.659 4.68 10.77.568 13.48c-.34.22-.044.683.354.503C6.64 12.09 8.378 9.158 9.448 6.64h1.775v3.54H9.367l.841 1.444h5.621l.858-1.443H15.3l-.335-5.475h-2.426L20.143.865h-5.33l-3.928 3.842h-.797l.808-2.466h.649l.638-1.376h-7.41Zm19.128 3.842 1.11-2.466 1.003 2.466H23.9Zm7.686 5.475-1.193-3.448V4.707h-.748L28.86 2.24h1.261L29.038.865h-8.119l-1.046 1.376h.853l-2.928 7.94h-.61l.067 1.444h5.072l.74-1.443h-1.283l1.482-3.458h3.229l1.328 3.458h-1.944l.827 1.443h5.516l.647-1.443h-1.282ZM51.382.865h14.047l-1.468 2.291h-1.503v-.915h-1.806v7.941h1.806l-.609 1.443h-6.807l-.636-1.443h2.267V2.241h-1.967v.915h-1.807L51.382.866ZM44.13 5.92c0 1.513 1.546 2.748 3.43 2.748 1.885 0 3.43-1.237 3.43-2.748 0-1.529-1.545-2.764-3.43-2.764-1.884 0-3.43 1.235-3.43 2.764Zm-4.124.325c0-2.968 3.035-5.38 6.765-5.38 3.728 0 6.766 2.412 6.766 5.38 0 2.954-3.037 5.38-6.766 5.38-3.73 0-6.765-2.426-6.765-5.38ZM29.934.865h11.02c-.52 1.344-.893 2.706-1.26 4.04-1.325 4.828-2.547 9.277-10.142 11.092-.27.038-.434-.237-.215-.494 4.456-2.581 5.423-7.628 6.462-13.049l.042-.215h-2.97v.917h-1.399L29.934.866Zm55.133 10.7a3.13 3.13 0 0 1-1.226-.268 2.912 2.912 0 0 1-.597-.358 2.49 2.49 0 0 1-.514-.54 2.688 2.688 0 0 1-.354-.73c-.09-.3-.135-.612-.131-.925v-4.99c.001-.2.023-.4.065-.597.045-.216.112-.427.203-.629.096-.213.218-.414.363-.598a2.53 2.53 0 0 1 .542-.512c.223-.154.468-.273.726-.354.3-.09.61-.135.922-.131h7.727v2.31h-7.726c-.178 0-.305.041-.387.123-.083.083-.123.217-.123.402v4.976a.45.45 0 0 0 .51.51h5.503V7.41h-4.904V5.086h6.053a1.153 1.153 0 0 1 .827.349 1.147 1.147 0 0 1 .337.815v4.154c0 .157-.03.313-.09.459a1.132 1.132 0 0 1-.617.615c-.146.06-.302.09-.459.09l-6.65-.002ZM102.46 9.07v2.496l2.312-.006V2.092a1.153 1.153 0 0 0-1.163-1.16h-4.154a5.608 5.608 0 0 0-2.115.393 5.104 5.104 0 0 0-1.686 1.1 5.032 5.032 0 0 0-1.115 1.687 5.605 5.605 0 0 0-.4 2.137v5.317h2.311V9.07h6.01Zm0-5.826v3.515h-6.01v-.51a3.344 3.344 0 0 1 .2-1.229c.115-.305.286-.587.503-.831.19-.21.416-.385.666-.518.227-.12.464-.216.71-.287.193-.056.39-.095.59-.116.172-.016.283-.024.336-.024h3.005ZM130.07.933v2.31h-7.388v1.843h6.557V7.41h-6.557v1.334c0 .178.041.306.123.388.081.081.214.123.394.123h6.869v2.31h-6.883a3.184 3.184 0 0 1-.905-.144 2.686 2.686 0 0 1-1.626-1.36c-.2-.41-.298-.861-.285-1.317V2.091a1.146 1.146 0 0 1 .336-.822 1.179 1.179 0 0 1 .83-.336h8.535Zm.97 10.633V9.255h7.344c.29 0 .504-.083.659-.24.155-.156.23-.385.23-.675a1.132 1.132 0 0 0-.063-.387.846.846 0 0 0-.175-.29.745.745 0 0 0-.271-.183.991.991 0 0 0-.377-.069h-4.239a3.516 3.516 0 0 1-1.035-.165 3.138 3.138 0 0 1-1.039-.555 3.054 3.054 0 0 1-.799-1.005c-.212-.411-.319-.923-.319-1.51s.107-1.095.32-1.507a3.052 3.052 0 0 1 1.837-1.564 3.51 3.51 0 0 1 1.032-.17h6.504v2.309h-6.504c-.284 0-.494.082-.646.247-.153.164-.232.393-.232.685 0 .291.074.516.228.678.154.162.364.235.65.235h4.239a3.43 3.43 0 0 1 2.078.757c.221.178.416.386.576.62.174.255.307.534.397.83.101.34.15.693.145 1.047.004.357-.046.712-.149 1.053a3.192 3.192 0 0 1-.395.83 2.65 2.65 0 0 1-.583.62 3.425 3.425 0 0 1-2.07.723l-7.343-.003Z" clip-rule="evenodd"/></g><defs><clipPath id="a"><path fill="#fff" d="M.419.001H141.58v16H.419z"/></clipPath></defs></svg>
